X:1
T:Briggs, LM
T:Briggs, LM
T:William A.Tarbutton, 1879
T:Public Domain Courtesy of the Cyber Hymnal™
C:William A.Tarbutton, 1879
Z:Public Domain
Z:Courtesy of the Cyber Hymnal™
%%score 1 ( 2 3 )
L:1/8
Q:1/4=85
M:3/4
K:Bb
V:1 treble 
V:2 bass 
V:3 bass 
V:1
 [DF][EG] [DF] | [FB]3 [FB] [FA][FB] | [Fc]3 [Fc] [Fd][Fc] | [FB]3 [Fd] [Fc][EA] | %4
 [DB]3 [DB] [FA][EG] | [DF]3 [DF] [FB][Fc] | [Fd]3 [Fd] [Fc][FB] | [EG]3 [Gc] [FB][EA] | [DB]3 |] %9
V:2
 [B,,B,][B,,B,] [B,,B,] | [B,,D]3 [B,,D] [C,C][D,B,] | [F,A,]3 [F,A,] B,[F,A,] | %3
 [D,B,]3 [B,,B,] [F,A,][F,C] | [B,,B,]3 [B,,B,] [B,,B,][B,,B,] | [B,,B,]3 [B,,B,] [D,B,][F,A,] | %6
 B,3 [B,,B,] [C,A,][D,B,] | [E,B,]3 [C,E] [F,D][F,C] | [B,,B,]3 |] %9
V:3
 x3 | x6 | x4 B, x | x6 | x6 | x6 | B,3 x3 | x6 | x3 |] %9

